X:546
T:Cascarda Chiara Stella
Z:Jack Campin, http://www.campin.me.uk/
F:Jack Campin's Nine-Note Tunebook
% last edit 03-02-2013
G:Renaissance Italian dance
V:1
V:2
V:3 transpose -12
M:6/8
L:1/8
Q:3/8=112
K:GMin
[V:1]  ^FGA   A2A | A2A B2c | d3    cBc  | d3  d2c |
[V:2]   AG^F  F2F |^F2F G2A | B3    F3   | B3  B2A |
[V:3]   D3    D3  | D3  G2A | d3    A3   | B3  B2A |
%
[V:1]   B>AG ^FGA | G2G G2G |^FGA   A2A  | A2A B2c |
[V:2]   G3    AG^F| D2D D2D | AG^F  F2F  |^F2F G2A |
[V:3]   G3    D3  | G3  G3  | D3    D3   | D3  G2A |
%
[V:1]   d3    cBc | d3  d2c | B>AG ^FGA  | G2B B>AG|
[V:2]   B3    F3  | B3  B2A | G3    AG^F | D2G G>AB|
[V:3]   B3    F3  | B3  B2A | G3    D3   | G2G G3  |
%
[V:1]  ^F2F   E>FG|^F2B B>AG|^F2F   E>FG |^F2F F3 ||
[V:2]   A2A   G>cB| A2G G>AB| A2A   G>^FE| A2A A3 ||
[V:3]   D3    C3  | D2G G3  | D3    C3   | D3  D3 ||
%
[V:1] |:d2d   d2c | d2d d2c | B>AG ^FGA  | G2G G3 :|
[V:2] |:B2B   B2F | B2B B2A | G>AG  AG^F | D2D D3 :|
[V:3] |:B3    B2F | B3  B2A | G3    D3   | G3  G3 :|

